;FLAVOR:Marlin
;TIME:643
;Filament used: 0.328976m
;Layer height: 0.2
;MINX:80.396
;MINY:92.995
;MINZ:0.2
;MAXX:126.826
;MAXY:126.825
;MAXZ:5.6
;TARGET_MACHINE.NAME:Creality Ender-3 Pro
;Generated with Cura_SteamEngine 5.5.0
M82 ;absolute extrusion mode
; Ender 3 Custom Start G-code
G92 E0 ; Reset Extruder
G28 ; Home all axes
G1 Z5.0 F3000 ; Move Z Axis up a bit during heating to not damage bed
M104 S175 ; Start heating up the nozzle most of the way
M190 S60 ; Start heating the bed, wait until target temperature reached
M109 S200 ; Finish heating the nozzle
G1 Z2.0 F3000 ; Move Z Axis up little to prevent scratching of Heat Bed
G1 X0.1 Y20 Z0.3 F5000.0 ; Move to start position
G1 X0.1 Y200.0 Z0.3 F1500.0 E15 ; Draw the first line
G1 X0.4 Y200.0 Z0.3 F5000.0 ; Move to side a little
G1 X0.4 Y20 Z0.3 F1500.0 E30 ; Draw the second line
G92 E0 ; Reset Extruder
G1 Z2.0 F3000 ; Move Z Axis up little to prevent scratching of Heat Bed
G1 X5 Y20 Z0.3 F5000.0 ; Move over to prevent blob squish
G92 E0
G92 E0
G1 F1500 E-6.5
;LAYER_COUNT:28
;LAYER:0
M107
G0 F6000 X86.509 Y96.845 Z0.2
;TYPE:SKIRT
G1 F1500 E0
G1 F1200 X87.004 Y96.468 E0.0207
G1 X87.601 Y96.037 E0.04519
G1 X88.211 Y95.621 E0.06974
G1 X89.006 Y95.136 E0.10072
G1 X89.523 Y94.867 E0.1201
G1 X90.248 Y94.52 E0.14683
G1 X90.671 Y94.329 E0.16227
G1 X91.554 Y93.977 E0.19389
G1 X92.185 Y93.777 E0.2159
G1 X93.152 Y93.506 E0.2493
G1 X93.526 Y93.412 E0.26213
G1 X94.41 Y93.23 E0.29215
G1 X95.016 Y93.147 E0.31249
G1 X95.54 Y93.091 E0.33002
G1 X96.355 Y93.025 E0.35722
G1 X97.316 Y92.995 E0.3892
G1 X97.938 Y93.021 E0.4099
G1 X98.734 Y93.077 E0.43644
G1 X101.293 Y93.219 E0.52169
G1 X103.823 Y93.288 E0.60586
G1 X106.299 Y93.284 E0.68822
G1 X109.617 Y93.178 E0.79863
G1 X110.681 Y93.199 E0.83403
G1 X111.464 Y93.253 E0.86013
G1 X112.164 Y93.319 E0.88352
G1 X113.058 Y93.452 E0.91358
G1 X113.673 Y93.589 E0.93453
G1 X114.616 Y93.832 E0.96692
G1 X115.117 Y93.978 E0.98428
G1 X116.405 Y94.443 E1.02982
G1 X117.089 Y94.747 E1.05472
G1 X117.656 Y95.015 E1.07558
G1 X118.454 Y95.437 E1.1056
G1 X119.138 Y95.869 E1.13251
G1 X119.77 Y96.308 E1.1581
G1 X120.271 Y96.676 E1.17878
G1 X120.998 Y97.259 E1.20978
G1 X121.42 Y97.65 E1.22891
G1 X121.97 Y98.189 E1.25452
G1 X122.382 Y98.615 E1.27423
G1 X123.266 Y99.653 E1.31958
G1 X123.745 Y100.302 E1.34641
G1 X124.112 Y100.832 E1.36785
G1 X124.593 Y101.596 E1.39788
G1 X124.984 Y102.342 E1.42589
G1 X125.326 Y103.071 E1.45267
G1 X125.561 Y103.609 E1.4722
G1 X126.041 Y104.938 E1.5192
G1 X126.261 Y105.721 E1.54625
G1 X126.412 Y106.323 E1.56689
G1 X126.604 Y107.265 E1.59887
G1 X126.675 Y107.813 E1.61725
G1 X126.759 Y108.648 E1.64516
G1 X126.797 Y109.154 E1.66204
G1 X126.826 Y110.114 E1.69398
G1 X126.801 Y110.714 E1.71395
G1 X126.753 Y111.401 E1.73686
G1 X126.685 Y112.124 E1.76101
G1 X126.545 Y113.074 E1.79295
G1 X126.416 Y113.654 E1.81271
G1 X126.257 Y114.285 E1.83436
G1 X126.045 Y115.045 E1.8606
G1 X125.593 Y116.314 E1.9054
G1 X125.256 Y117.085 E1.93339
G1 X124.987 Y117.652 E1.95426
G1 X124.564 Y118.451 E1.98433
G1 X124.146 Y119.112 E2.01034
G1 X123.686 Y119.778 E2.03727
G1 X123.326 Y120.269 E2.05752
G1 X122.726 Y121.014 E2.08933
G1 X122.408 Y121.36 E2.10496
G1 X121.859 Y121.921 E2.13107
G1 X121.41 Y122.358 E2.15191
G1 X120.694 Y122.996 E2.1838
G1 X120.276 Y123.32 E2.20139
G1 X119.645 Y123.78 E2.22737
G1 X119.147 Y124.124 E2.2475
G1 X118.382 Y124.605 E2.27755
G1 X117.656 Y124.986 E2.30482
G1 X117.257 Y125.176 E2.31952
G1 X116.383 Y125.565 E2.35134
G1 X115.515 Y125.901 E2.3823
G1 X114.979 Y126.068 E2.40097
G1 X114.223 Y126.276 E2.42705
G1 X113.675 Y126.413 E2.44584
G1 X112.736 Y126.604 E2.47771
G1 X112.192 Y126.675 E2.49595
G1 X111.41 Y126.754 E2.5221
G1 X110.871 Y126.795 E2.54008
G1 X109.911 Y126.825 E2.57202
G1 X109.296 Y126.8 E2.59249
G1 X108.455 Y126.742 E2.62053
G1 X105.861 Y126.6 E2.70694
G1 X103.365 Y126.533 E2.78998
G1 X100.881 Y126.538 E2.8726
G1 X97.603 Y126.643 E2.98168
G1 X96.532 Y126.622 E3.01731
G1 X95.756 Y126.568 E3.04319
G1 X95.091 Y126.506 E3.0654
G1 X94.168 Y126.371 E3.09643
G1 X93.535 Y126.231 E3.11799
G1 X92.925 Y126.077 E3.13891
G1 X92.249 Y125.889 E3.16225
G1 X91.335 Y125.587 E3.19427
G1 X90.74 Y125.34 E3.21569
G1 X90.163 Y125.08 E3.23674
G1 X89.494 Y124.759 E3.26142
G1 X88.651 Y124.302 E3.29332
G1 X88.178 Y124.002 E3.31195
G1 X87.494 Y123.536 E3.33947
G1 X87.105 Y123.258 E3.35538
G1 X86.394 Y122.7 E3.38544
G1 X85.887 Y122.241 E3.40818
G1 X85.315 Y121.688 E3.43465
G1 X84.858 Y121.225 E3.45628
G1 X83.974 Y120.191 E3.50153
G1 X83.468 Y119.506 E3.52985
G1 X83.099 Y118.971 E3.55147
G1 X82.586 Y118.151 E3.58364
G1 X82.243 Y117.493 E3.60832
G1 X81.896 Y116.75 E3.6356
G1 X81.655 Y116.198 E3.65563
G1 X81.173 Y114.859 E3.70296
G1 X80.965 Y114.121 E3.72846
G1 X80.819 Y113.543 E3.74829
G1 X80.636 Y112.659 E3.77832
G1 X80.548 Y112.008 E3.80017
G1 X80.451 Y111.033 E3.83276
G1 X80.422 Y110.631 E3.84616
G1 X80.396 Y109.67 E3.87814
G1 X80.424 Y109.057 E3.89855
G1 X80.476 Y108.354 E3.92199
G1 X80.546 Y107.632 E3.94612
G1 X80.679 Y106.739 E3.97615
G1 X80.818 Y106.111 E3.99754
G1 X81.035 Y105.265 E4.02659
G1 X81.157 Y104.834 E4.04149
G1 X81.441 Y103.976 E4.07155
G1 X81.691 Y103.368 E4.09341
G1 X81.947 Y102.795 E4.11429
G1 X82.269 Y102.119 E4.13919
G1 X82.725 Y101.276 E4.17107
G1 X83.042 Y100.777 E4.19073
G1 X83.532 Y100.058 E4.21967
G1 X83.811 Y99.671 E4.23554
G1 X84.387 Y98.938 E4.26654
G1 X84.818 Y98.466 E4.2878
G1 X85.307 Y97.961 E4.31118
G1 X85.789 Y97.484 E4.33374
G1 X86.509 Y96.845 E4.36576
G0 F6000 X86.752 Y97.163
G1 F1200 X87.238 Y96.792 E4.38609
G1 X87.827 Y96.367 E4.41025
G1 X88.42 Y95.962 E4.43413
G1 X89.191 Y95.491 E4.46418
G1 X89.696 Y95.228 E4.48312
G1 X90.413 Y94.885 E4.50956
G1 X90.836 Y94.694 E4.52499
G1 X91.675 Y94.358 E4.55505
G1 X92.293 Y94.162 E4.57662
G1 X93.25 Y93.894 E4.60967
G1 X93.607 Y93.804 E4.62192
G1 X94.491 Y93.622 E4.65194
G1 X95.059 Y93.545 E4.671
G1 X95.573 Y93.49 E4.68819
G1 X96.368 Y93.425 E4.71472
G1 X97.3 Y93.395 E4.74574
G1 X97.91 Y93.42 E4.76604
G1 X98.706 Y93.476 E4.79258
G1 X101.282 Y93.619 E4.87839
G1 X103.813 Y93.688 E4.96261
G1 X106.312 Y93.684 E5.04572
G1 X109.609 Y93.578 E5.15544
G1 X110.654 Y93.598 E5.1902
G1 X111.426 Y93.651 E5.21594
G1 X112.105 Y93.715 E5.23862
G1 X112.999 Y93.848 E5.26869
G1 X113.573 Y93.976 E5.28825
G1 X114.505 Y94.216 E5.32026
G1 X114.981 Y94.354 E5.33674
G1 X116.269 Y94.819 E5.38228
G1 X116.918 Y95.108 E5.40591
G1 X117.469 Y95.369 E5.42619
G1 X118.267 Y95.791 E5.45622
G1 X118.91 Y96.198 E5.48153
G1 X119.534 Y96.631 E5.50679
G1 X120.021 Y96.988 E5.52687
G1 X120.726 Y97.553 E5.55692
G1 X121.14 Y97.936 E5.57568
G1 X121.683 Y98.468 E5.60096
G1 X122.077 Y98.874 E5.61978
G1 X122.961 Y99.912 E5.66513
G1 X123.416 Y100.53 E5.69065
G1 X123.773 Y101.045 E5.71149
G1 X124.254 Y101.809 E5.74152
G1 X124.622 Y102.512 E5.76791
G1 X124.959 Y103.231 E5.79432
G1 X125.194 Y103.769 E5.81385
G1 X125.656 Y105.046 E5.85902
G1 X125.873 Y105.818 E5.88569
G1 X126.02 Y106.403 E5.90575
G1 X126.207 Y107.317 E5.93678
G1 X126.277 Y107.853 E5.95476
G1 X126.36 Y108.678 E5.98234
G1 X126.397 Y109.166 E5.99862
G1 X126.426 Y110.098 E6.02963
G1 X126.402 Y110.686 E6.0492
G1 X126.355 Y111.364 E6.07181
G1 X126.289 Y112.066 E6.09526
G1 X126.154 Y112.988 E6.12625
G1 X126.028 Y113.557 E6.14564
G1 X125.872 Y114.178 E6.16693
G1 X125.668 Y114.911 E6.19224
G1 X125.226 Y116.154 E6.23612
G1 X124.889 Y116.925 E6.2641
G1 X124.633 Y117.465 E6.28398
G1 X124.21 Y118.264 E6.31405
G1 X123.817 Y118.885 E6.33849
G1 X123.364 Y119.541 E6.36501
G1 X123.014 Y120.018 E6.38468
G1 X122.431 Y120.743 E6.41563
G1 X122.113 Y121.089 E6.43126
G1 X121.58 Y121.635 E6.45664
G1 X121.144 Y122.06 E6.47689
G1 X120.449 Y122.68 E6.50786
G1 X120.04 Y122.997 E6.52508
G1 X119.417 Y123.451 E6.55071
G1 X118.934 Y123.785 E6.57025
G1 X118.169 Y124.266 E6.6003
G1 X117.484 Y124.625 E6.62602
G1 X117.094 Y124.811 E6.6404
G1 X116.238 Y125.192 E6.67156
G1 X115.396 Y125.519 E6.7016
G1 X114.873 Y125.682 E6.71982
G1 X114.126 Y125.888 E6.74559
G1 X113.595 Y126.021 E6.7638
G1 X112.684 Y126.207 E6.79473
G1 X112.152 Y126.277 E6.81257
G1 X111.379 Y126.355 E6.83841
G1 X110.858 Y126.395 E6.85579
G1 X109.927 Y126.425 E6.88677
G1 X109.324 Y126.401 E6.90685
G1 X108.483 Y126.343 E6.93488
G1 X105.872 Y126.2 E7.02186
G1 X103.375 Y126.133 E7.10494
G1 X100.868 Y126.138 E7.18832
G1 X97.611 Y126.243 E7.29671
G1 X96.56 Y126.223 E7.33167
G1 X95.793 Y126.17 E7.35724
G1 X95.149 Y126.11 E7.37875
G1 X94.226 Y125.975 E7.40978
G1 X93.633 Y125.843 E7.42998
G1 X93.032 Y125.691 E7.4506
G1 X92.374 Y125.509 E7.47331
G1 X91.488 Y125.217 E7.50434
G1 X90.904 Y124.975 E7.52536
G1 X90.336 Y124.719 E7.54608
G1 X89.684 Y124.407 E7.57012
G1 X88.865 Y123.964 E7.60109
G1 X88.403 Y123.671 E7.61929
G1 X87.727 Y123.211 E7.64649
G1 X87.352 Y122.943 E7.66182
G1 X86.641 Y122.385 E7.69188
G1 X86.165 Y121.953 E7.71326
G1 X85.6 Y121.407 E7.73939
G1 X85.143 Y120.944 E7.76103
G1 X84.296 Y119.953 E7.80439
G1 X83.797 Y119.278 E7.83231
G1 X83.438 Y118.759 E7.8533
G1 X82.941 Y117.966 E7.88442
G1 X82.598 Y117.308 E7.9091
G1 X82.263 Y116.59 E7.93545
G1 X82.022 Y116.038 E7.95549
G1 X81.558 Y114.75 E8.00102
G1 X81.353 Y114.023 E8.02614
G1 X81.211 Y113.462 E8.04539
G1 X81.028 Y112.578 E8.07542
G1 X80.946 Y111.968 E8.09589
G1 X80.85 Y111.004 E8.12811
G1 X80.822 Y110.62 E8.14092
G1 X80.796 Y109.688 E8.17193
G1 X80.823 Y109.086 E8.19197
G1 X80.874 Y108.393 E8.21508
G1 X80.942 Y107.691 E8.23854
G1 X81.075 Y106.798 E8.26857
G1 X81.206 Y106.21 E8.2886
G1 X81.42 Y105.374 E8.31731
G1 X81.537 Y104.96 E8.33162
G1 X81.821 Y104.102 E8.36168
G1 X82.056 Y103.531 E8.38221
G1 X82.308 Y102.967 E8.40276
G1 X82.621 Y102.309 E8.42699
G1 X83.063 Y101.49 E8.45795
G1 X83.373 Y101.002 E8.47718
G1 X83.857 Y100.292 E8.50576
G1 X84.126 Y99.918 E8.52108
G1 X84.702 Y99.185 E8.55208
G1 X85.105 Y98.744 E8.57195
G1 X85.588 Y98.245 E8.59505
G1 X86.055 Y97.783 E8.6169
G1 X86.752 Y97.163 E8.64793
G0 F6000 X86.995 Y97.481
G1 F1200 X87.472 Y97.116 E8.66791
G1 X88.053 Y96.697 E8.69173
G1 X88.629 Y96.303 E8.71494
G1 X89.4 Y95.832 E8.74499
G1 X89.869 Y95.589 E8.76256
G1 X90.578 Y95.249 E8.78871
G1 X90.985 Y95.065 E8.80357
G1 X91.824 Y94.729 E8.83363
G1 X92.401 Y94.547 E8.85375
G1 X93.348 Y94.282 E8.88646
G1 X93.688 Y94.196 E8.89812
G1 X94.572 Y94.014 E8.92814
G1 X95.102 Y93.943 E8.94593
G1 X95.606 Y93.889 E8.96279
G1 X96.381 Y93.825 E8.98865
G1 X97.284 Y93.795 E9.0187
G1 X97.882 Y93.819 E9.03861
G1 X98.678 Y93.875 E9.06515
G1 X101.271 Y94.019 E9.15152
G1 X103.803 Y94.088 E9.23577
G1 X106.325 Y94.084 E9.31965
G1 X109.602 Y93.978 E9.4287
G1 X110.627 Y93.997 E9.4628
G1 X111.388 Y94.049 E9.48817
G1 X112.046 Y94.111 E9.51015
G1 X112.94 Y94.244 E9.54021
G1 X113.473 Y94.363 E9.55838
G1 X114.394 Y94.6 E9.59001
G1 X114.845 Y94.73 E9.60562
G1 X116.106 Y95.185 E9.65021
G1 X116.747 Y95.47 E9.67354
G1 X117.282 Y95.723 E9.69322
G1 X118.08 Y96.145 E9.72325
G1 X118.682 Y96.527 E9.74696
G1 X119.298 Y96.954 E9.77189
G1 X119.771 Y97.3 E9.79138
G1 X120.476 Y97.865 E9.82143
G1 X120.86 Y98.221 E9.83885
G1 X121.396 Y98.747 E9.86382
G1 X121.79 Y99.153 E9.88264
G1 X122.639 Y100.149 E9.92617
G1 X123.087 Y100.758 E9.95132
G1 X123.434 Y101.258 E9.97156
G1 X123.915 Y102.022 E10.00159
G1 X124.26 Y102.682 E10.02636
G1 X124.593 Y103.392 E10.05244
G1 X124.818 Y103.905 E10.07107
G1 X125.271 Y105.154 E10.11526
G1 X125.485 Y105.915 E10.14155
G1 X125.628 Y106.484 E10.16107
G1 X125.81 Y107.369 E10.19112
G1 X125.879 Y107.893 E10.2087
G1 X125.961 Y108.709 E10.23597
G1 X125.997 Y109.179 E10.25165
G1 X126.026 Y110.082 E10.2817
G1 X126.003 Y110.659 E10.30091
G1 X125.957 Y111.327 E10.32318
G1 X125.893 Y112.008 E10.34593
G1 X125.763 Y112.902 E10.37598
G1 X125.64 Y113.46 E10.39498
G1 X125.487 Y114.071 E10.41593
G1 X125.291 Y114.777 E10.4403
G1 X124.849 Y116.02 E10.48418
G1 X124.527 Y116.754 E10.51084
G1 X124.279 Y117.278 E10.53012
G1 X123.856 Y118.077 E10.56019
G1 X123.488 Y118.658 E10.58306
G1 X123.041 Y119.305 E10.60922
G1 X122.702 Y119.768 E10.6283
G1 X122.137 Y120.472 E10.65833
G1 X121.826 Y120.81 E10.6736
G1 X121.301 Y121.349 E10.69863
G1 X120.878 Y121.762 E10.71829
G1 X120.204 Y122.364 E10.74835
G1 X119.804 Y122.674 E10.76518
G1 X119.189 Y123.122 E10.79049
G1 X118.721 Y123.446 E10.80942
G1 X117.956 Y123.927 E10.83948
G1 X117.312 Y124.264 E10.86365
G1 X116.931 Y124.446 E10.87769
G1 X116.093 Y124.819 E10.9082
G1 X115.251 Y125.146 E10.93824
G1 X114.766 Y125.296 E10.95513
G1 X114.028 Y125.5 E10.9806
G1 X113.515 Y125.629 E10.99819
G1 X112.631 Y125.81 E11.0282
G1 X112.112 Y125.879 E11.04562
G1 X111.348 Y125.956 E11.07116
G1 X110.845 Y125.995 E11.08794
G1 X109.943 Y126.025 E11.11795
G1 X109.352 Y126.002 E11.13762
G1 X108.511 Y125.944 E11.16566
G1 X105.883 Y125.8 E11.2532
G1 X103.385 Y125.733 E11.33631
G1 X100.855 Y125.738 E11.42046
G1 X97.618 Y125.843 E11.52818
G1 X96.587 Y125.824 E11.56248
G1 X95.83 Y125.772 E11.58772
G1 X95.207 Y125.714 E11.60853
G1 X94.313 Y125.584 E11.63858
G1 X93.731 Y125.455 E11.6584
G1 X93.138 Y125.305 E11.67875
G1 X92.499 Y125.129 E11.70079
G1 X91.641 Y124.847 E11.73083
G1 X91.068 Y124.61 E11.75145
G1 X90.508 Y124.358 E11.77188
G1 X89.874 Y124.055 E11.79525
G1 X89.079 Y123.626 E11.8253
G1 X88.628 Y123.34 E11.84306
G1 X87.96 Y122.886 E11.86992
G1 X87.599 Y122.628 E11.88468
G1 X86.888 Y122.07 E11.91474
G1 X86.443 Y121.665 E11.93475
G1 X85.885 Y121.126 E11.96056
G1 X85.428 Y120.663 E11.9822
G1 X84.6 Y119.693 E12.02461
G1 X84.126 Y119.05 E12.05118
G1 X83.777 Y118.546 E12.07157
G1 X83.296 Y117.781 E12.10163
G1 X82.953 Y117.123 E12.12631
G1 X82.629 Y116.43 E12.15175
G1 X82.398 Y115.902 E12.17092
G1 X81.943 Y114.642 E12.21548
G1 X81.741 Y113.924 E12.24028
G1 X81.603 Y113.381 E12.25892
G1 X81.42 Y112.497 E12.28894
G1 X81.344 Y111.928 E12.30804
G1 X81.249 Y110.975 E12.33989
G1 X81.222 Y110.608 E12.35213
G1 X81.196 Y109.706 E12.38214
G1 X81.222 Y109.115 E12.40182
G1 X81.272 Y108.432 E12.4246
G1 X81.338 Y107.75 E12.44739
G1 X81.471 Y106.857 E12.47742
G1 X81.593 Y106.309 E12.49609
G1 X81.805 Y105.483 E12.52445
G1 X81.917 Y105.086 E12.53817
G1 X82.201 Y104.228 E12.56823
G1 X82.421 Y103.694 E12.58744
G1 X82.669 Y103.139 E12.60766
G1 X82.973 Y102.499 E12.63122
G1 X83.401 Y101.704 E12.66125
G1 X83.704 Y101.227 E12.68005
G1 X84.182 Y100.525 E12.7083
G1 X84.44 Y100.165 E12.72303
G1 X84.998 Y99.455 E12.75306
G1 X85.393 Y99.022 E12.77256
G1 X85.869 Y98.529 E12.79535
G1 X86.321 Y98.082 E12.81649
G1 X86.995 Y97.481 E12.84653
G1 F1500 E6.34653
;MESH:buttoncap110.stl(1)
G0 F6000 X93.219 Y105.205
G0 X98.067 Y114.594
;TYPE:WALL-INNER
G1 F1500 E12.84653
G1 F1200 X98.869 Y114.379 E12.87415
G1 X99.655 Y114.013 E12.90298
G1 X100.338 Y113.534 E12.93073
G1 X100.934 Y112.937 E12.95879
G1 X101.419 Y112.245 E12.98689
G1 X101.779 Y111.47 E13.01531
G1 X101.994 Y110.662 E13.04312
G1 X102.07 Y109.82 E13.07124
G1 X101.995 Y108.976 E13.09942
G1 X101.779 Y108.172 E13.12711
G1 X101.415 Y107.39 E13.1558
G1 X100.936 Y106.709 E13.1835
G1 X100.334 Y106.106 E13.21184
G1 X99.644 Y105.623 E13.23985
G1 X98.878 Y105.265 E13.26797
G1 X98.064 Y105.048 E13.29599
G1 X97.22 Y104.973 E13.32417
G1 X96.376 Y105.048 E13.35235
G1 X95.569 Y105.263 E13.38013
G1 X94.795 Y105.625 E13.40855
G1 X94.106 Y106.107 E13.43652
G1 X93.509 Y106.706 E13.46465
G1 X93.024 Y107.397 E13.49273
G1 X92.664 Y108.172 E13.52115
G1 X92.447 Y108.984 E13.5491
G1 X92.374 Y109.82 E13.57701
G1 X92.448 Y110.662 E13.60513
G1 X92.664 Y111.47 E13.63294
G1 X93.028 Y112.252 E13.66163
G1 X93.506 Y112.931 E13.68925
G1 X94.11 Y113.535 E13.71766
G1 X94.798 Y114.018 E13.74562
G1 X95.573 Y114.378 E13.77404
G1 X96.381 Y114.594 E13.80186
G1 X97.223 Y114.669 E13.82998
G1 X98.067 Y114.594 E13.85816
G0 F6000 X98.137 Y114.99
;TYPE:WALL-OUTER
G1 F1200 X99.007 Y114.756 E13.88812
G1 X99.856 Y114.361 E13.91927
G1 X100.596 Y113.842 E13.94933
G1 X101.242 Y113.195 E13.97974
G1 X101.767 Y112.446 E14.01016
G1 X102.157 Y111.607 E14.04094
G1 X102.39 Y110.732 E14.07105
G1 X102.472 Y109.82 E14.10151
G1 X102.39 Y108.906 E14.13203
G1 X102.157 Y108.035 E14.16202
G1 X101.763 Y107.189 E14.19306
G1 X101.244 Y106.451 E14.22307
G1 X100.592 Y105.798 E14.25376
G1 X99.845 Y105.275 E14.28409
