;FLAVOR:Marlin
;TIME:11963
;Filament used: 10.8372m
;Layer height: 0.28
;MINX:36.779
;MINY:57.15
;MINZ:0.28
;MAXX:183.199
;MAXY:159.149
;MAXZ:22.12
;TARGET_MACHINE.NAME:Creality Ender-3 Pro
;Generated with Cura_SteamEngine 5.5.0
M82 ;absolute extrusion mode
; Ender 3 Custom Start G-code
G92 E0 ; Reset Extruder
G28 ; Home all axes
G1 Z5.0 F3000 ; Move Z Axis up a bit during heating to not damage bed
M104 S175 ; Start heating up the nozzle most of the way
M190 S60 ; Start heating the bed, wait until target temperature reached
M109 S200 ; Finish heating the nozzle
G1 Z2.0 F3000 ; Move Z Axis up little to prevent scratching of Heat Bed
G1 X0.1 Y20 Z0.3 F5000.0 ; Move to start position
G1 X0.1 Y200.0 Z0.3 F1500.0 E15 ; Draw the first line
G1 X0.4 Y200.0 Z0.3 F5000.0 ; Move to side a little
G1 X0.4 Y20 Z0.3 F1500.0 E30 ; Draw the second line
G92 E0 ; Reset Extruder
G1 Z2.0 F3000 ; Move Z Axis up little to prevent scratching of Heat Bed
G1 X5 Y20 Z0.3 F5000.0 ; Move over to prevent blob squish
G92 E0
G92 E0
G1 F1500 E-6.5
;LAYER_COUNT:79
;LAYER:0
M107
G0 F6000 X46.949 Y60.256 Z0.28
;TYPE:SKIRT
G1 F1500 E0
G1 F1200 X47.531 Y59.827 E0.03367
G1 X47.953 Y59.536 E0.05754
G1 X49.005 Y58.898 E0.11483
G1 X49.293 Y58.746 E0.12999
G1 X50.045 Y58.386 E0.16881
G1 X50.989 Y58.003 E0.21625
G1 X51.937 Y57.703 E0.26255
G1 X52.247 Y57.619 E0.2775
G1 X53.217 Y57.405 E0.32376
G1 X53.723 Y57.32 E0.34765
G1 X55.06 Y57.181 E0.41024
G1 X55.916 Y57.155 E0.45012
G1 X97.08 Y57.15 E2.36689
G1 X98.054 Y57.162 E2.41224
G1 X98.79 Y57.198 E2.44656
G1 X102.37 Y57.498 E2.61384
G1 X104.851 Y57.628 E2.72952
G1 X107.382 Y57.689 E2.84741
G1 X109.873 Y57.68 E2.9634
G1 X112.439 Y57.597 E3.08295
G1 X114.902 Y57.448 E3.19785
G1 X116.83 Y57.276 E3.28798
G1 X118.162 Y57.181 E3.35016
G1 X118.915 Y57.155 E3.38525
G1 X160.091 Y57.15 E5.30257
G1 X161.124 Y57.166 E5.35068
G1 X162.293 Y57.25 E5.40525
G1 X162.743 Y57.308 E5.42638
G1 X163.796 Y57.498 E5.4762
G1 X164.139 Y57.579 E5.49261
G1 X165.056 Y57.838 E5.53698
G1 X165.478 Y57.979 E5.5577
G1 X166.745 Y58.486 E5.62125
G1 X167.574 Y58.913 E5.66467
G1 X167.924 Y59.11 E5.68337
G1 X168.849 Y59.694 E5.73431
G1 X169.293 Y60.006 E5.75958
G1 X170.057 Y60.597 E5.80455
G1 X170.581 Y61.071 E5.83745
G1 X170.963 Y61.44 E5.86219
G1 X171.446 Y61.938 E5.89449
G1 X171.782 Y62.308 E5.91776
G1 X172.486 Y63.168 E5.96951
G1 X172.811 Y63.609 E5.99502
G1 X173.343 Y64.408 E6.03972
G1 X173.618 Y64.863 E6.06448
G1 X174.112 Y65.778 E6.1129
G1 X174.386 Y66.352 E6.14251
G1 X174.787 Y67.31 E6.19087
G1 X175.001 Y67.903 E6.22023
G1 X175.375 Y69.182 E6.28228
G1 X175.556 Y70.003 E6.32142
G1 X175.725 Y70.875 E6.36278
G1 X177.453 Y80.528 E6.81941
G1 X178.026 Y83.901 E6.97872
G1 X178.459 Y86.701 E7.11065
G1 X178.684 Y88.32 E7.18676
G1 X178.878 Y89.855 E7.25881
G1 X179.158 Y92.478 E7.38164
G1 X179.299 Y94.057 E7.45546
G1 X179.44 Y95.976 E7.54506
G1 X179.543 Y97.701 E7.62552
G1 X179.606 Y99.036 E7.68775
G1 X179.685 Y101.193 E7.78826
G1 X179.79 Y103.641 E7.90235
G1 X179.964 Y106.098 E8.01705
G1 X180.21 Y108.584 E8.13337
G1 X180.54 Y111.161 E8.25435
G1 X180.918 Y113.584 E8.36854
G1 X181.376 Y116.049 E8.48528
G1 X181.917 Y118.563 E8.60503
G1 X182.512 Y120.987 E8.72125
G1 X182.887 Y122.41 E8.78977
G1 X183.084 Y123.415 E8.83746
G1 X183.184 Y124.383 E8.88277
G1 X183.199 Y125.358 E8.92818
G1 X183.127 Y126.33 E8.97356
G1 X182.976 Y127.26 E9.01743
G1 X182.72 Y128.485 E9.07571
G1 X182.217 Y131.063 E9.19801
G1 X181.801 Y133.554 E9.31561
G1 X181.461 Y136.04 E9.43245
G1 X181.196 Y138.421 E9.544
G1 X181.043 Y139.382 E9.58931
G1 X180.806 Y140.327 E9.63468
G1 X180.486 Y141.246 E9.67999
G1 X180.086 Y142.134 E9.72534
G1 X179.607 Y142.987 E9.7709
G1 X179.01 Y143.854 E9.81991
G1 X177.326 Y146.059 E9.9491
G1 X175.843 Y148.117 E10.06722
G1 X174.424 Y150.213 E10.18508
G1 X173.065 Y152.321 E10.30187
G1 X172.516 Y153.095 E10.34606
G1 X172.192 Y153.509 E10.37054
G1 X171.423 Y154.389 E10.42495
G1 X170.948 Y154.875 E10.4566
G1 X170.119 Y155.638 E10.50906
G1 X169.795 Y155.905 E10.52861
G1 X168.93 Y156.551 E10.57888
G1 X168.536 Y156.815 E10.60097
G1 X167.773 Y157.279 E10.64255
G1 X166.723 Y157.82 E10.69755
G1 X165.774 Y158.209 E10.74531
G1 X165.323 Y158.372 E10.76764
G1 X164.406 Y158.656 E10.81234
G1 X164.037 Y158.752 E10.83009
G1 X163.088 Y158.955 E10.87528
G1 X162.27 Y159.06 E10.91368
G1 X161.913 Y159.091 E10.93037
G1 X161.203 Y159.131 E10.96348
G1 X160.405 Y159.148 E11.00065
G1 X119.324 Y159.149 E12.91355
G1 X118.502 Y159.138 E12.95183
G1 X117.769 Y159.102 E12.986
G1 X114.173 Y158.801 E13.15403
G1 X111.7 Y158.673 E13.26934
G1 X109.161 Y158.611 E13.3876
G1 X106.677 Y158.62 E13.50327
G1 X104.101 Y158.704 E13.62328
G1 X101.651 Y158.852 E13.73757
G1 X99.73 Y159.028 E13.8274
G1 X98.818 Y159.099 E13.86999
G1 X98.205 Y159.131 E13.89857
G1 X97.404 Y159.148 E13.93588
G1 X56.303 Y159.149 E15.84972
G1 X55.408 Y159.133 E15.8914
G1 X54.234 Y159.047 E15.94621
G1 X53.812 Y158.992 E15.96603
G1 X52.775 Y158.805 E16.01509
G1 X52.382 Y158.712 E16.0339
G1 X51.499 Y158.464 E16.0766
G1 X51.212 Y158.37 E16.09067
G1 X50.164 Y157.963 E16.14302
G1 X49.698 Y157.751 E16.16686
G1 X48.745 Y157.258 E16.21682
G1 X48.484 Y157.105 E16.2309
G1 X47.553 Y156.493 E16.28278
G1 X47.169 Y156.211 E16.30497
G1 X46.606 Y155.769 E16.3383
G1 X46.292 Y155.503 E16.35746
G1 X45.771 Y155.033 E16.39013
G1 X45.557 Y154.825 E16.40403
G1 X45.056 Y154.308 E16.43755
G1 X44.457 Y153.624 E16.47989
G1 X43.875 Y152.874 E16.52409
G1 X43.66 Y152.573 E16.54132
G1 X43.208 Y151.885 E16.57965
G1 X42.94 Y151.441 E16.6038
G1 X42.578 Y150.793 E16.63836
G1 X42.427 Y150.497 E16.65383
G1 X42.077 Y149.751 E16.6922
G1 X41.847 Y149.191 E16.72039
G1 X41.681 Y148.751 E16.74229
G1 X41.402 Y147.914 E16.78337
G1 X41.286 Y147.513 E16.80281
G1 X41.139 Y146.948 E16.82999
G1 X41.012 Y146.367 E16.85769
G1 X40.813 Y145.333 E16.90672
G1 X39.076 Y135.616 E17.36635
G1 X38.632 Y133.024 E17.48881
G1 X38.277 Y130.819 E17.5928
G1 X37.881 Y128.052 E17.72296
G1 X37.66 Y126.296 E17.80537
G1 X37.491 Y124.762 E17.87723
G1 X37.321 Y123.003 E17.95952
G1 X37.168 Y121.078 E18.04944
G1 X37.009 Y118.542 E18.16776
G1 X36.927 Y116.724 E18.2525
G1 X36.857 Y114.578 E18.35248
G1 X36.814 Y112.622 E18.44358
G1 X36.786 Y110.255 E18.5538
G1 X36.779 Y107.843 E18.66612
G1 X36.79 Y105.51 E18.77475
G1 X36.821 Y103.253 E18.87986
G1 X36.879 Y100.945 E18.98736
G1 X36.953 Y98.972 E19.0793
G1 X37.051 Y97.014 E19.17058
G1 X37.169 Y95.185 E19.25593
G1 X37.323 Y93.287 E19.3446
G1 X37.477 Y91.679 E19.41981
G1 X37.787 Y88.981 E19.54627
G1 X38.007 Y87.325 E19.62406
G1 X38.291 Y85.396 E19.71485
G1 X38.602 Y83.452 E19.80652
G1 X39.29 Y79.453 E19.99547
G1 X40.865 Y70.692 E20.40996
G1 X41.049 Y69.757 E20.45433
G1 X41.204 Y69.09 E20.48621
G1 X41.423 Y68.32 E20.52349
G1 X41.579 Y67.836 E20.54717
G1 X41.858 Y67.074 E20.58496
G1 X42.223 Y66.229 E20.62782
G1 X42.421 Y65.816 E20.64914
G1 X42.767 Y65.153 E20.68397
G1 X42.905 Y64.91 E20.69698
G1 X43.258 Y64.332 E20.72851
G1 X43.517 Y63.937 E20.75051
G1 X43.964 Y63.306 E20.78652
G1 X44.19 Y63.009 E20.80389
G1 X44.747 Y62.334 E20.84464
G1 X45.167 Y61.871 E20.87375
G1 X45.406 Y61.625 E20.88972
G1 X45.902 Y61.144 E20.9219
G1 X46.131 Y60.937 E20.93627
G1 X46.661 Y60.485 E20.9687
G1 X46.949 Y60.256 E20.98584
G0 F6000 X47.186 Y60.578
G1 F1200 X47.758 Y60.156 E21.01894
G1 X48.161 Y59.878 E21.04173
G1 X49.192 Y59.252 E21.0979
G1 X49.466 Y59.107 E21.11233
G1 X50.195 Y58.757 E21.14999
G1 X51.139 Y58.374 E21.19742
G1 X52.042 Y58.089 E21.24152
G1 X52.333 Y58.01 E21.25556
G1 X53.303 Y57.796 E21.30181
G1 X53.765 Y57.718 E21.32363
G1 X55.072 Y57.581 E21.38482
G1 X55.916 Y57.555 E21.42414
G1 X97.075 Y57.55 E23.34067
G1 X98.035 Y57.562 E23.38538
G1 X98.757 Y57.597 E23.41904
G1 X102.337 Y57.896 E23.58632
G1 X104.841 Y58.028 E23.70308
G1 X107.373 Y58.089 E23.82101
G1 X109.886 Y58.08 E23.93803
G1 X112.452 Y57.997 E24.05758
G1 X114.928 Y57.847 E24.17308
G1 X116.858 Y57.675 E24.2633
G1 X118.176 Y57.581 E24.32483
G1 X118.915 Y57.555 E24.35926
G1 X160.085 Y57.55 E26.27631
G1 X161.095 Y57.565 E26.32335
G1 X162.242 Y57.647 E26.37689
G1 X162.672 Y57.702 E26.39708
G1 X163.725 Y57.892 E26.4469
G1 X164.03 Y57.964 E26.46149
G1 X164.93 Y58.218 E26.50504
G1 X165.33 Y58.351 E26.52467
G1 X166.562 Y58.842 E26.58642
G1 X167.378 Y59.262 E26.62916
G1 X167.728 Y59.459 E26.64786
G1 X168.619 Y60.021 E26.69691
G1 X169.049 Y60.323 E26.72138
G1 X169.789 Y60.894 E26.7649
G1 X170.303 Y61.359 E26.79718
G1 X170.676 Y61.719 E26.82131
G1 X171.15 Y62.207 E26.85299
G1 X171.486 Y62.577 E26.87626
G1 X172.164 Y63.405 E26.9261
G1 X172.478 Y63.831 E26.95074
G1 X173.001 Y64.615 E26.99462
G1 X173.266 Y65.053 E27.01846
G1 X173.751 Y65.95 E27.06594
G1 X174.017 Y66.507 E27.09469
G1 X174.411 Y67.446 E27.1421
G1 X174.617 Y68.015 E27.17028
G1 X174.984 Y69.268 E27.23108
G1 X175.163 Y70.079 E27.26975
G1 X175.331 Y70.946 E27.31087
G1 X177.059 Y80.595 E27.76732
G1 X177.631 Y83.962 E27.92634
G1 X178.063 Y86.756 E28.05799
G1 X178.287 Y88.37 E28.13387
G1 X178.48 Y89.898 E28.20558
G1 X178.76 Y92.513 E28.32804
G1 X178.9 Y94.086 E28.40158
G1 X179.041 Y96 E28.49094
G1 X179.143 Y97.72 E28.57117
G1 X179.206 Y99.051 E28.63322
G1 X179.285 Y101.21 E28.73382
G1 X179.39 Y103.658 E28.84791
G1 X179.566 Y106.137 E28.96364
G1 X179.813 Y108.635 E29.08052
G1 X180.143 Y111.212 E29.2015
G1 X180.525 Y113.657 E29.31673
G1 X180.985 Y116.133 E29.43399
G1 X181.526 Y118.647 E29.55374
G1 X182.125 Y121.089 E29.67082
G1 X182.5 Y122.512 E29.73934
G1 X182.686 Y123.457 E29.78419
G1 X182.784 Y124.39 E29.82787
G1 X182.8 Y125.329 E29.8716
G1 X182.732 Y126.266 E29.91535
G1 X182.581 Y127.196 E29.95922
G1 X182.327 Y128.408 E30.01688
G1 X181.824 Y130.986 E30.13919
G1 X181.407 Y133.488 E30.2573
G1 X181.063 Y135.996 E30.37517
G1 X180.801 Y138.359 E30.48588
G1 X180.655 Y139.285 E30.52953
G1 X180.428 Y140.196 E30.57325
G1 X180.121 Y141.082 E30.61691
G1 X179.737 Y141.939 E30.66064
G1 X179.278 Y142.76 E30.70443
G1 X178.692 Y143.611 E30.75255
G1 X177.001 Y145.825 E30.88227
G1 X175.519 Y147.883 E31.00036
G1 X174.093 Y149.989 E31.11879
G1 X172.739 Y152.09 E31.23518
G1 X172.201 Y152.849 E31.2785
G1 X171.891 Y153.246 E31.30195
G1 X171.137 Y154.11 E31.35535
G1 X170.677 Y154.581 E31.38601
G1 X169.864 Y155.33 E31.43748
G1 X169.556 Y155.585 E31.4561
G1 X168.707 Y156.219 E31.50544
G1 X168.328 Y156.473 E31.52668
G1 X167.565 Y156.937 E31.56826
G1 X166.571 Y157.45 E31.62035
G1 X165.638 Y157.833 E31.66731
G1 X165.204 Y157.99 E31.6888
G1 X164.305 Y158.269 E31.73263
G1 X163.953 Y158.361 E31.74957
G1 X163.037 Y158.558 E31.7932
G1 X162.219 Y158.663 E31.8316
G1 X161.891 Y158.692 E31.84694
G1 X161.194 Y158.731 E31.87944
G1 X160.405 Y158.748 E31.91619
G1 X119.329 Y158.749 E33.82886
G1 X118.521 Y158.738 E33.86649
G1 X117.802 Y158.703 E33.90001
G1 X114.206 Y158.403 E34.06803
G1 X111.71 Y158.273 E34.18442
G1 X109.17 Y158.211 E34.30272
G1 X106.664 Y158.22 E34.41942
G1 X104.088 Y158.304 E34.53943
G1 X101.624 Y158.453 E34.65437
G1 X99.699 Y158.629 E34.74438
G1 X98.797 Y158.7 E34.78651
G1 X98.196 Y158.731 E34.81454
G1 X97.404 Y158.748 E34.85142
G1 X56.31 Y158.749 E36.76493
G1 X55.437 Y158.734 E36.80559
G1 X54.285 Y158.65 E36.85937
G1 X53.883 Y158.598 E36.87825
G1 X52.846 Y158.411 E36.92731
G1 X52.49 Y158.327 E36.94435
G1 X51.623 Y158.084 E36.98627
G1 X51.357 Y157.997 E36.9993
G1 X50.309 Y157.59 E37.05165
G1 X49.882 Y157.396 E37.07349
G1 X48.947 Y156.913 E37.1225
G1 X48.704 Y156.771 E37.1356
G1 X47.79 Y156.171 E37.18651
G1 X47.416 Y155.896 E37.20813
G1 X46.853 Y155.454 E37.24146
G1 X46.56 Y155.206 E37.25933
G1 X46.05 Y154.746 E37.29131
G1 X45.844 Y154.546 E37.30468
G1 X45.357 Y154.044 E37.33725
G1 X44.758 Y153.36 E37.37959
G1 X44.2 Y152.641 E37.42196
G1 X43.994 Y152.353 E37.43845
G1 X43.55 Y151.678 E37.47607
G1 X43.289 Y151.246 E37.49958
G1 X42.934 Y150.611 E37.53345
G1 X42.789 Y150.327 E37.5483
G1 X42.447 Y149.599 E37.58575
G1 X42.221 Y149.05 E37.6134
G1 X42.055 Y148.61 E37.63529
G1 X41.786 Y147.803 E37.6749
G1 X41.673 Y147.412 E37.69386
G1 X41.53 Y146.862 E37.72032
G1 X41.405 Y146.291 E37.74754
G1 X41.207 Y145.263 E37.79628
G1 X39.47 Y135.549 E38.25578
G1 X39.027 Y132.96 E38.37809
G1 X38.673 Y130.761 E38.4818
G1 X38.476 Y129.428 E38.54455
G1 X38.278 Y128.002 E38.61158
G1 X38.058 Y126.252 E38.69371
G1 X37.889 Y124.724 E38.7653
G1 X37.72 Y122.971 E38.8473
G1 X37.567 Y121.053 E38.9369
G1 X37.409 Y118.524 E39.05489
G1 X37.327 Y116.711 E39.13939
G1 X37.257 Y114.569 E39.23919
G1 X37.214 Y112.617 E39.3301
G1 X37.186 Y110.254 E39.44014
G1 X37.179 Y107.845 E39.55232
G1 X37.19 Y105.516 E39.66076
G1 X37.221 Y103.263 E39.76568
G1 X37.279 Y100.96 E39.87296
G1 X37.352 Y98.992 E39.96466
G1 X37.45 Y97.04 E40.05566
G1 X37.568 Y95.217 E40.14073
G1 X37.721 Y93.325 E40.22912
G1 X37.874 Y91.725 E40.30396
G1 X38.183 Y89.034 E40.43009
G1 X38.403 Y87.383 E40.50764
G1 X38.686 Y85.459 E40.5982
G1 X38.996 Y83.52 E40.68963
G1 X39.684 Y79.524 E40.87844
G1 X41.258 Y70.769 E41.29264
G1 X41.439 Y69.847 E41.3364
G1 X41.589 Y69.199 E41.36737
G1 X41.804 Y68.443 E41.40397
G1 X41.955 Y67.974 E41.42691
G1 X42.234 Y67.212 E41.46469
G1 X42.584 Y66.402 E41.50578
G1 X42.776 Y66.001 E41.52648
G1 X43.115 Y65.351 E41.56062
G1 X43.253 Y65.108 E41.57363
G1 X43.593 Y64.551 E41.60402
G1 X43.843 Y64.168 E41.62532
G1 X44.282 Y63.548 E41.66069
G1 X44.499 Y63.263 E41.67737
G1 X45.043 Y62.603 E41.7172
G1 X45.455 Y62.149 E41.74574
G1 X45.684 Y61.912 E41.76109
G1 X46.171 Y61.44 E41.79267
G1 X46.39 Y61.241 E41.80645
G1 X46.91 Y60.798 E41.83826
G1 X47.186 Y60.578 E41.85469
G0 F6000 X47.424 Y60.9
G1 F1200 X47.985 Y60.485 E41.88718
G1 X48.369 Y60.22 E41.90891
G1 X49.38 Y59.605 E41.96401
G1 X49.64 Y59.467 E41.97772
G1 X50.346 Y59.127 E42.01421
G1 X51.259 Y58.755 E42.06011
G1 X52.147 Y58.475 E42.10347
G1 X52.419 Y58.401 E42.11659
G1 X53.389 Y58.187 E42.16285
G1 X53.807 Y58.116 E42.18259
G1 X55.084 Y57.981 E42.24238
G1 X55.916 Y57.955 E42.28114
G1 X97.07 Y57.95 E44.19745
G1 X98.016 Y57.962 E44.2415
G1 X98.724 Y57.996 E44.27451
G1 X102.304 Y58.294 E44.44178
G1 X104.831 Y58.428 E44.55961
G1 X107.364 Y58.489 E44.6776
G1 X109.899 Y58.48 E44.79564
G1 X112.465 Y58.397 E44.91518
G1 X114.952 Y58.246 E45.0312
G1 X116.886 Y58.074 E45.12161
G1 X118.19 Y57.981 E45.18249
G1 X118.915 Y57.955 E45.21627
G1 X160.079 Y57.95 E47.13304
G1 X161.067 Y57.964 E47.17905
G1 X162.192 Y58.044 E47.23156
G1 X162.601 Y58.096 E47.25076
G1 X163.634 Y58.282 E47.29963
G1 X163.921 Y58.349 E47.31336
G1 X164.804 Y58.598 E47.35608
G1 X165.182 Y58.723 E47.37462
G1 X166.379 Y59.198 E47.43458
G1 X167.182 Y59.611 E47.47663
G1 X167.532 Y59.808 E47.49533
G1 X168.389 Y60.348 E47.5425
G1 X168.805 Y60.64 E47.56616
G1 X169.521 Y61.191 E47.60823
G1 X170.025 Y61.647 E47.63988
G1 X170.389 Y61.998 E47.66343
G1 X170.854 Y62.476 E47.69448
G1 X171.177 Y62.831 E47.71683
G1 X171.842 Y63.642 E47.76566
G1 X172.145 Y64.053 E47.78944
G1 X172.659 Y64.822 E47.83251
G1 X172.914 Y65.243 E47.85543
G1 X173.39 Y66.123 E47.90202
G1 X173.648 Y66.662 E47.92984
G1 X174.035 Y67.583 E47.97636
G1 X174.233 Y68.128 E48.00336
G1 X174.593 Y69.354 E48.06286
G1 X174.77 Y70.155 E48.10105
G1 X174.937 Y71.017 E48.14194
G1 X176.665 Y80.662 E48.5982
G1 X177.236 Y84.023 E48.75695
G1 X177.667 Y86.811 E48.88831
G1 X177.89 Y88.42 E48.96395
G1 X178.082 Y89.941 E49.03533
G1 X178.362 Y92.548 E49.15742
G1 X178.501 Y94.115 E49.23068
G1 X178.642 Y96.024 E49.31981
G1 X178.743 Y97.739 E49.39981
G1 X178.806 Y99.066 E49.46167
G1 X178.885 Y101.227 E49.56236
G1 X178.99 Y103.675 E49.67645
G1 X179.168 Y106.176 E49.7932
G1 X179.416 Y108.686 E49.91065
G1 X179.746 Y111.263 E50.03163
G1 X180.132 Y113.73 E50.1479
G1 X180.594 Y116.217 E50.26568
G1 X181.135 Y118.731 E50.38543
G1 X181.738 Y121.191 E50.50336
G1 X182.113 Y122.614 E50.57189
G1 X182.288 Y123.5 E50.61394
G1 X182.384 Y124.398 E50.65599
G1 X182.401 Y125.301 E50.69805
G1 X182.337 Y126.202 E50.74011
G1 X182.186 Y127.132 E50.78398
G1 X181.934 Y128.331 E50.84103
G1 X181.431 Y130.909 E50.96334
G1 X181.013 Y133.422 E51.08196
G1 X180.665 Y135.952 E51.20088
G1 X180.406 Y138.297 E51.31073
G1 X180.267 Y139.189 E51.35277
G1 X180.05 Y140.066 E51.39484
G1 X179.756 Y140.919 E51.43685
G1 X179.388 Y141.744 E51.47891
